X:2
T:Silver In My Mother's Hair
C:Vince Courtney (-1951)
L:1/4
M:3/4
I:linebreak $
K:F
C | A E F | _A2 F/G/ | A G3/2 F/ | c2 A/>C/ | F D F | G A C | F3- | F z D |$ B A G | A ^F D | 
w: The|sil- ver that|lines ev- ry|cloud in the|sky, is a|won- der- ful|sight you will|say.|* But|I know of|sil- ver much|
B A B | d2 B | A G F | D2 E/F/ | c2- c || C | A B =B |$ c d A | A2 _A | G2 G/A/ | B c B | B A ^G | 
w: rich- er than|that. In-|creas- ing in|val- ue each|day. *|Ther's|no sil- ver|linl- ing in|an- y|cloud like the|sil- ver in|my mo- ther's|
A3- | A z z | A B =B |$ c d3/2 A/ | A2 _A | G2 z | G A3/2 G/ | G F D | G3- | G z z | F G3/2 A/ | 
w: hair.||No- thing so|pre- cious in|all the|world|no- thing with|it will com-|pare.||I've seen the|
A B3/2 c/ |$ c2 =B | B3 | =B A G | G A G | G3- | G z C | A B =B | c d3/2 A/ | A2 _A | G2 G/>A/ |$ 
w: dew- drop a-|pon the|rose,|I've seen the|Li- ly so|fair.|* But|no- thing I|see is as|dear to|me as the|
B c B | B A G | F3- | F z z :| 
w: sil- ver in|my mo- thers|hair.||



